X:1
T:Minuet. SenH.140
T:Minuet. SenH.140
T:in Hand C
C:in Hand C
L:1/8
Q:1/4=100
M:3/4
K:G
V:1 treble 
V:1
 Td'2 b2 g2 | d'bgbd'b | Ta2 f2 d2 | afdfaf | Te4 (fg) | dBGBdB | dfegfa | g6 || a2 (gfed) | %9
 afdfad | b2 (g2 e2) | bgegbg | c'bagfe | e2 F2 e2 | (ef) g2 (fe) | e4 g2 | dBGBdB | c2 e2 g2 | %18
 ecAcec | c2 e2 g2 | ab c'2 (bc') | d'bgbd'b | Ta2 d2 (gf) | g2 g4 |] %24

